assets/01_base/Base_52.svg

<svg xmlns="http://www.w3.org/2000/svg" width="500" height="500" fill="none" viewBox="0 0 500 500"><g clip-path="url(#a)"><g clip-path="url(#b)"><path fill="#0065b1" d="m278.219 435.451 115.187-.217-125.382-56.992 11.127-24.312 126.763 57.611-57.61-126.763 24.311-11.127 56.992 125.381.217-115.186 26.699-.05-.286 151.303c-.027 14.748-12.001 26.721-26.749 26.749l-151.302.285.05-26.698z"/><path fill="#319ed7" d="m290.052 462.127-256.36.484C34.134 229.276 223.64 39.77 456.975 39.329l-.483 256.36c-91.749.173-166.266 74.69-166.431 166.43z"/></g></g><defs><clipPath id="a"><path fill="#fff" d="M500 0H0v500h500z"/></clipPath><clipPath id="b"><path fill="#fff" d="M369.629-48-53.652 375.281l290.371 290.372L660 242.37z"/></clipPath></defs></svg>

<svg width="500" height="500" viewBox="0 0 500 500" fill="none" xmlns="http://www.w3.org/2000/svg">
<g clip-path="url(#clip0_70_636)">
<g clip-path="url(#clip1_70_636)">
<path d="M278.219 435.451L393.406 435.234L268.024 378.242L279.151 353.93L405.914 411.541L348.304 284.778L372.615 273.651L429.607 399.032L429.824 283.846L456.523 283.796L456.237 435.099C456.21 449.847 444.236 461.82 429.488 461.848L278.186 462.133L278.236 435.435L278.219 435.451Z" fill="#0065B1"/>
<path d="M290.052 462.127L33.6928 462.611C34.133 229.276 223.639 39.7697 456.974 39.3294L456.491 295.689C364.742 295.862 290.225 370.379 290.06 462.119L290.052 462.127Z" fill="#319ED7"/>
</g>
</g>
<defs>
<clipPath id="clip0_70_636">
<rect width="500" height="500" fill="white" transform="matrix(-1 0 0 1 500 0)"/>
</clipPath>
<clipPath id="clip1_70_636">
<rect width="598.61" height="410.647" fill="white" transform="matrix(-0.707107 0.707107 0.707107 0.707107 369.629 -48)"/>
</clipPath>
</defs>
</svg>
